X: 3
T: The Humours Of Kiltyclogher
R: jig
M: 6/8
L: 1/8
K: Ador
|:[A D]GE G2E|c2E EGE|DED {E}[A2 D2]E|GED D2E|AGE G2E|c2E DEG|[A3 D3] B[A D]G|[1 [A3 D3] [A3 D3]:|[2 [A3 D3] [A2 D2]||:B|{cd}c2B c2d|e[A D][A D] [A2 D2]c|B[B G][B G] [B G]AB|dB[B G] [B G]AB|[c2 G2][B G] [c2 E2]d| e[A D][A D] [A2 D2]c|BAG [G D]A[B G]|[1[A3 D3] [A2 D2]:|[2 [A3 D3] [A3 D3]|


Tune 1043	Setting 25868

